dist/img/leasing-mult/advantage-1.svg

<svg width="74" height="80" viewBox="0 0 74 80" fill="none" xmlns="http://www.w3.org/2000/svg">
<g clip-path="url(#clip0_3164_2547)">
<path d="M38.7139 21.355V1.05786L59.4681 21.355H38.7139Z" stroke="#231F20" stroke-width="2" stroke-linecap="round" stroke-linejoin="round"/>
<path d="M59.4674 30.1779V21.3615L38.7131 1.05786H2.99068C1.92619 1.05786 1.05762 1.90031 1.05762 2.94521V77.0481C1.05762 78.093 1.91966 78.9354 2.99068 78.9354H57.5409C58.6054 78.9354 59.4739 78.093 59.4739 77.0481V68.3493" stroke="#231F20" stroke-width="2" stroke-linecap="round" stroke-linejoin="round"/>
<path d="M39.3924 65.7958H9.33203" stroke="#231F20" stroke-width="2" stroke-linecap="round" stroke-linejoin="round"/>
<path d="M32.3851 57.2016H9.33203" stroke="#231F20" stroke-width="2" stroke-linecap="round" stroke-linejoin="round"/>
<path d="M31.0986 48.6006H9.33203" stroke="#231F20" stroke-width="2" stroke-linecap="round" stroke-linejoin="round"/>
<path d="M33.2798 39.9999H9.33203" stroke="#231F20" stroke-width="2" stroke-linecap="round" stroke-linejoin="round"/>
<path d="M41.4104 31.3992H9.33203" stroke="#231F20" stroke-width="2" stroke-linecap="round" stroke-linejoin="round"/>
<path d="M33.8479 22.8047H9.33203" stroke="#231F20" stroke-width="2" stroke-linecap="round" stroke-linejoin="round"/>
<path d="M32.8684 14.204H9.33203" stroke="#231F20" stroke-width="2" stroke-linecap="round" stroke-linejoin="round"/>
<path d="M72.0327 52.5671C73.856 41.3348 66.2285 30.7512 54.9962 28.9279C43.7639 27.1046 33.1802 34.7322 31.357 45.9645C29.5337 57.1968 37.1612 67.7804 48.3935 69.6037C59.6258 71.4269 70.2095 63.7994 72.0327 52.5671Z" stroke="#231F20" stroke-width="2" stroke-linecap="round" stroke-linejoin="round"/>
<path d="M66.7359 43.3827L61.9293 37.897L49.691 51.8725L42.7489 43.9443L37.9424 49.43L49.691 62.8439L54.4975 57.3582L66.7359 43.3827Z" stroke="#231F20" stroke-width="2" stroke-linecap="round" stroke-linejoin="round"/>
</g>
<defs>
<clipPath id="clip0_3164_2547">
<rect width="73.3584" height="80" fill="white"/>
</clipPath>
</defs>
</svg>

<svg width="74" height="80" viewBox="0 0 74 80" fill="none" xmlns="http://www.w3.org/2000/svg"><g clip-path="url(#clip0_3164_2547)" stroke="#231F20" stroke-width="2" stroke-linecap="round" stroke-linejoin="round"><path d="M38.714 21.355V1.058l20.754 20.297H38.714z"/><path d="M59.467 30.178V21.36L38.713 1.058H2.991c-1.065 0-1.933.842-1.933 1.887v74.103c0 1.045.862 1.887 1.933 1.887h54.55c1.064 0 1.933-.842 1.933-1.887V68.35m-20.082-2.554H9.332m23.053-8.594H9.332M31.099 48.6H9.332M33.28 40H9.332m32.078-8.6H9.332m24.516-8.595H9.332m23.536-8.601H9.332"/><path d="M72.033 52.567c1.823-11.232-5.805-21.816-17.037-23.64-11.232-1.822-21.816 5.805-23.639 17.038-1.823 11.232 5.804 21.815 17.037 23.639 11.232 1.823 21.816-5.805 23.639-17.037z"/><path d="M66.736 43.383l-4.807-5.486-12.238 13.976-6.942-7.929-4.807 5.486 11.749 13.414 4.806-5.486 12.239-13.975z"/></g><defs><clipPath id="clip0_3164_2547"><path fill="#fff" d="M0 0h73.358v80H0z"/></clipPath></defs></svg>
